X:10
T:Alex F.
R:reel
D:Highland Classic, Carl MacKenzie, 2007 S:http://www.cranfordpub.com/recordings/carl.htm
Z:psc -  http://www.cranfordpub.com
L:1/8
Q:333
M:C|
K:D
B|AFAB d/d/d dc|BABd eEEB|AFAB d/d/d dg|fdec dDD:|
||g|fdef dBAF|(B/c/d) AF BEEg|fdef defd|efga fddg|
fdef dBAF|(B/c/d) AF BEEB|AFAB d/d/d dg|fdec dDD|]
